images/themes/sigpacgo/nodpi/ic_reshape_tool_white_24dp.svg

<svg xmlns="http://www.w3.org/2000/svg" xmlns:xlink="http://www.w3.org/1999/xlink" width="24" height="24" viewBox="0 0 24 24">
<path fill="none" stroke-width="2" stroke-linecap="round" stroke-linejoin="miter" stroke="rgb(100%, 100%, 100%)" stroke-opacity="0.72552" stroke-miterlimit="4" d="M 2 8 L 16 8 L 16 21 L 2 21 Z M 2 8 "/>
<path fill-rule="nonzero" fill="rgb(100%, 100%, 100%)" fill-opacity="0.49" stroke-width="1" stroke-linecap="butt" stroke-linejoin="miter" stroke="rgb(100%, 100%, 100%)" stroke-opacity="1" stroke-dasharray="3 1" stroke-miterlimit="4" d="M 9 2 L 9 7 L 17 7 L 17 17 L 23 17 L 23 2 Z M 9 2 "/>
<path fill="none" stroke-width="1" stroke-linecap="butt" stroke-linejoin="miter" stroke="rgb(100%, 100%, 100%)" stroke-opacity="1" stroke-dasharray="2 1" stroke-miterlimit="4" d="M 9.5 7 L 9.5 2.5 L 22.5 2.5 L 22.5 16.5 L 17 16.5 "/>
<path fill="none" stroke-width="2" stroke-linecap="butt" stroke-linejoin="miter" stroke="rgb(100%, 100%, 100%)" stroke-opacity="1" stroke-miterlimit="4" d="M 10 8 L 2 8 L 2 21 L 16 21 L 16 16 "/>
</svg>

<?xml version="1.0" encoding="UTF-8"?>
<svg width="24" height="24" version="1.1" xmlns="http://www.w3.org/2000/svg" xmlns:cc="http://creativecommons.org/ns#" xmlns:dc="http://purl.org/dc/elements/1.1/" xmlns:rdf="http://www.w3.org/1999/02/22-rdf-syntax-ns#">
 <metadata>
  <rdf:RDF>
   <cc:Work rdf:about="">
    <dc:format>image/svg+xml</dc:format>
    <dc:type rdf:resource="http://purl.org/dc/dcmitype/StillImage"/>
    <dc:title/>
   </cc:Work>
  </rdf:RDF>
 </metadata>
 <g stroke="#fff">
  <path d="m2 8h14v13h-14z" fill="none" stroke-linecap="round" stroke-opacity=".72552" stroke-width="2"/>
  <path d="m9 2v5h8v10h6v-15z" fill="#fff" fill-opacity=".49" stroke-dasharray="3, 1"/>
  <path d="m9.5 7v-4.5h13v14h-5.5" fill="none" stroke-dasharray="2, 1"/>
  <path d="m10 8h-8v13h14v-5" fill="none" stroke-width="2"/>
 </g>
</svg>
